X:1
T:Tantum ergo - Colonna
T:James Gibb editions
T:#
%%score [ 1 2 3 4 ]
L:1/8
Q:1/4=90
M:4/4
K:C
V:1 treble nm="Soprano" snm="S"
V:2 treble nm="Alto" snm="A"
V:3 treble-8 nm="Tenor" snm="T"
V:4 bass nm="Bass" snm="B"
V:1
"^Tantum ergo""^Giovanni Paolo Colonna\n(1637-95)"!p! A3 A A2 A2 |!<(! A2 A2!<)! G4 | A2!f! A4 B2 | %3
w: Tan- tum er- go|Sa- cra- men-|tum Ve- ne-|
 c2 G2 (A3 G | AB c4) B2 | c2 c4 c2 |[M:4/4]!>(! B2 A2 B2 ^G2!>)! | A4 ^G2!mf! G2- | %8
w: re- mur cer\- *|* * * nu-|i, Et an-|ti- quum do- cu-|men- tum No\-|
 G2 A2!<(! B2 A2!<)! | (^G2 B2 c4 |!>(! B3) B!>)! A2!f! ^c2- | c2 ^c2 d2 =c2 | _B2!>(! A2 G4!>)! | %13
w: * vo ce- dat|ri\- * *|* tu- i. Prae\-|* stet fi- des|sup- ple- men-|
 A4 z4 | z4 z2!mf! A2- | A2 =B2 ^c2 A2- | A2!>(! d4 ^c2!>)! | !fermata!d8 ||[M:3/2] x12 | %19
w: tum|Sen\-|* su- um de\-|* fe- ctu-|i.||
[M:3/2][Q:1/4=180][Q:1/4=180][Q:1/4=180][Q:1/4=180] z4!p! A4 A4 | A8 A4 | A8 A4- | A4 (A6 G2) | %23
w: Ge- ni-|to- ri|Ge- ni\-|* to\- *|
 A4 A4 A4 | A8 _B4- | B4 !>!G6 G2 | F4!mf! A4 A4 | =B8 c4 |!<(! B8 A4!<)! | B8 B4 | z4 B4 B4 | %31
w: que Laus et|ju- bi\-|* la- ti-|o, Sa- lus,|ho- nor,|vir- tus|quo- que|Sit et|
 c8 c4- |!>(! c4 c6!>)! B2 | c12 | z4!f! c4 c4 | B8 c4- | c4!>(! A4 A4 | ^G8!>)! G4 | %38
w: be- ne\-|* di- cti-|o,|Pro- ce-|den- ti|* ab u-|tro- que|
 z4!mf! A4 c4 | B8 A4- | A4!>(! A6 ^G2!>)! | A4!mf! ^c4 c4 | d8 d4- | d4 d6 ^c2 | !fermata!d12 || %45
w: Com- par|sit lau\-|* da- ti-|o, com- par|sit lau\-|* da- ti-|o.|
[M:4/4][Q:1/4=90] _B8 | !fermata!A8 |] %47
w: A-|men.|
V:2
!p! F3 F F2 E2 |!<(! F2 F2!<)! (F2 E2) | F2!f! F4 F2 | E2 E2 (F2 C2 | F2 EF G3) G | G2 G4 G2 | %6
w: Tan- tum er- go|Sa- cra- men\- *|tum Ve- ne-|re- mur cer\- *|* * * * nu-|i, Et an-|
[M:4/4]!>(! G2 E2 F2 E2-!>)! | E (D/C/ D2) E2!mf! E2- | E2 E2!<(! F2 D2!<)! | (E3 ^F/^G/ A4- | %10
w: ti- quum do- cu\-|* men\- * * tum No\-|* vo ce- dat|ri\- * * *|
!>(! A2) ^G2!>)! A2!f! A2- | A2 A2 A2 A2 | (DE)!>(! F4 E2!>)! | F4!mf! F4 | G4 A4 | F4 (E4 | %16
w: * tu- i. Prae\-|* stet fi- des|sup\- * ple- men-|tum Sen-|su- um|de- fe\-|
 A2 F2!>(! E3) E!>)! | !fermata!^F8 ||[M:3/2] x12 |[M:3/2] z4!p! =F4 F4 | E8 E4 | F8 E4 | D12 | %23
w: * * * ctu-|i.||Ge- ni-|to- ri|Ge- ni-|to-|
 E4 E4 E4 | F8 F4- | F4 !>!F6 E2 | F4!mf! F4 F4 | F8 G4 |!<(! G8 ^F4!<)! | G8 G4 | z4 D4 D4 | %31
w: que Laus et|ju- bi\-|* la- ti-|o, Sa- lus,|ho- nor,|vir- tus|quo- que|Sit et|
 E8 E4- |!>(! E4 D6!>)! D2 | E12 | z4!f! G4 G4 | ^G8 E4- | E4!>(! F4 D4 | E8!>)! E4 | %38
w: be- ne\-|* di- cti-|o,|Pro- ce-|den- ti|* ab u-|tro- que|
 z4!mf! E4 A4 | F8 E4- | E4!>(! E6 E2!>)! | E4!mf! E4 E4 | F8 F4- | F4 E6 E2 | !fermata!F12 || %45
w: Com- par|sit lau\-|* da- ti-|o, com- par|sit lau\-|* da- ti-|o.|
[M:4/4] G8 | !fermata!^F8 |] %47
w: A-|men.|
V:3
!p! d3 d d2 ^c2 |!<(! d2 =c2!<)! c4 | c2!f! c4 d2 | G2 c2 (c4 | d2 e2 d3) d | c2 e4 e2 | %6
w: Tan- tum er- go|Sa- cra- men-|tum Ve- ne-|re- mur cer\-|* * * nu-|i, Et an-|
[M:4/4][K:treble-8]!>(! d2 c2 d2 B2!>)! | A4 B2!mf! B2- | B2 c2!<(! d2 A2!<)! | (B2 e3 dcd | %10
w: ti- quum do- cu-|men- tum No\-|* vo ce- dat|ri\- * * * *|
!>(! e3) e!>)! e2!f! e2- | e2 e2 f2 c2 | d2!>(! c2 c4!>)! | c2!mf! A4 B2- | B2 c4 A2 | (d4 ^c4 | %16
w: * tu- i. Prae\-|* stet fi- des|sup- ple- men-|tum Sen- su\-|* um de-|fe\- *|
 A6)!>(! A2 | !fermata!A8!>)! ||[M:3/2] x12 |[M:3/2][K:treble-8] z4!p! d4 d4 | e8 ^c4 | d8 ^c4 | %22
w: * ctu-|i.||Ge- ni-|to- ri|Ge- ni-|
 d12 | ^c4 c4 c4 | d8 d4- | d4 !>!=c6 c2 | c4!mf! c4 c4 | d8 e4 |!<(! d8 c4!<)! | d8 d4 | %30
w: to-|que Laus et|ju- bi\-|* la- ti-|o, Sa- lus,|ho- nor,|vir- tus|quo- que|
 z4 B4 B4 | G8 G4- |!>(! G4 G6!>)! G2 | G12 | z4!f! e4 e4 | e8 c4- | c4!>(! d4 A4 | B8!>)! B4 | %38
w: Sit et|be- ne\-|* di- cti-|o,|Pro- ce-|den- ti|* ab u-|tro- que|
 z4!mf! c4 e4 | d8 c4- | c4!>(! B6 B2!>)! | A4!mf! A4 A4 | A8 A4- | A4 A6 A2 | !fermata!A12 || %45
w: Com- par|sit lau\-|* da- ti-|o, com- par|sit lau\-|* da- ti-|o.|
[M:4/4] d8 | !fermata!d8 |] %47
w: A-|men.|
V:4
!p! D,3 D, D,2 A,,2 |!<(! D,2 F,2!<)! C,4 | F,,2!f! F,4 D,2 | C,2 C,2 (F,3 E, | D,2 C,2) G,,4 | %5
w: Tan- tum er- go|Sa- cra- men-|tum Ve- ne-|re- mur cer\- *|* * nu-|
 C,2 C4 C2 |[M:4/4]!>(! G,2 A,2 D,2 E,2!>)! | F,4 E,2!mf! E,2- | E,2 A,2!<(! D,2 F,2!<)! | %9
w: i, Et an-|ti- quum do- cu-|men- tum No\-|* vo ce- dat|
 (E,3 D, C,2 A,,2 |!>(! E,3) E,!>)! A,,2!f! A,2- | A,2 A,2 D,2 A,,2 | _B,,2!>(! F,,2 C,4!>)! | %13
w: ri\- * * *|* tu- i. Prae\-|* stet fi- des|sup- ple- men-|
 F,,4!mf! F,4 | E,4 F,4 | D,4 (A,3 G, | F,2 D,2!>(! A,,3) A,,!>)! | !fermata!D,8 ||[M:3/2] x12 | %19
w: tum Sen-|su- um|de- fe\- *|* * * ctu-|i.||
[M:3/2] z4!p! D,4 D,4 | ^C,8 A,,4 | D,8 A,,4 | _B,,12 | A,,4 A,,4 A,,4 | D,8 _B,,4- | %25
w: Ge- ni-|to- ri|Ge- ni-|to-|que Laus et|ju- bi\-|
 B,,4 !>!C,6 C,2 | F,,4!mf! F,4 F,4 | D,8 C,4 |!<(! G,8 A,4!<)! | G,8 G,4 | z4 G,4 G,4 | E,8 C,4- | %32
w: * la- ti-|o, Sa- lus,|ho- nor,|vir- tus|quo- que|Sit et|be- ne\-|
!>(! C,4 G,,6!>)! G,,2 | C,12 | z4!f! C4 C4 | ^G,8 A,4- | A,4!>(! D,4 F,4 | E,8!>)! E,4 | %38
w: * di- cti-|o,|Pro- ce-|den- ti|* ab u-|tro- que|
 z4!mf! C,4 C,4 | D,8 A,,4- | A,,4!>(! E,6 E,2!>)! | A,,4!mf! A,4 A,4 | F,8 D,4- | D,4 A,,6 A,,2 | %44
w: Com- par|sit lau\-|* da- ti-|o, com- par|sit lau\-|* da- ti-|
 !fermata!D,12 ||[M:4/4] G,,8 | !fermata!D,8 |] %47
w: o.|A-|men.|

